src/icons/icons_set_04/044-enveloppe.svg

<svg height="50" viewBox="0 0 50 50" width="50" xmlns="http://www.w3.org/2000/svg"><path d="m44.8981224 14.3868068v22.2012269c0 .4108253-.165153.7227481-.4130816.9444633-.009551.0094193-.0195.0177517-.028653.027171-.0175102.0144912-.0334286.0304315-.0517347.0441981-.2431531.2228021-.5830102.3709745-1.0299184.3709745h-35.85094899c-.8257653 0-1.52378571-.6372501-1.52378571-1.3868069v-22.2012269c0-.7517304.69961224-1.3868068 1.52378571-1.3868068h35.85094899c.8253673 0 1.5233877.6368878 1.5233877 1.3868068zm-19.8697404 11.902159-10.7591821-8.8346474-2.5383998 3.0913632 12 9.8535157c.7248763.5952149 1.7660092.6067372 2.5038808.0277105l12.5566406-9.8535156-2.4693618-3.1467844z" fill-rule="evenodd"/></svg>

<?xml version="1.0" encoding="UTF-8"?>
<svg width="50px" height="50px" viewBox="0 0 50 50" version="1.1" xmlns="http://www.w3.org/2000/svg" xmlns:xlink="http://www.w3.org/1999/xlink">
    <!-- Generator: Sketch 52.4 (67378) - http://www.bohemiancoding.com/sketch -->
    <title>044-enveloppe</title>
    <desc>Created with Sketch.</desc>
    <g id="044-enveloppe" stroke="none" stroke-width="1" fill="none" fill-rule="evenodd">
        <path d="M44.8981224,14.3868068 L44.8981224,36.5880337 C44.8981224,36.998859 44.7329694,37.3107818 44.4850408,37.532497 C44.4754898,37.5419163 44.4655408,37.5502487 44.4563878,37.559668 C44.4388776,37.5741592 44.4229592,37.5900995 44.4046531,37.6038661 C44.1615,37.8266682 43.8216429,37.9748406 43.3747347,37.9748406 L7.52378571,37.9748406 C6.69802041,37.9748406 6,37.3375905 6,36.5880337 L6,14.3868068 C6,13.6350764 6.69961224,13 7.52378571,13 L43.3747347,13 C44.200102,13 44.8981224,13.6368878 44.8981224,14.3868068 Z M25.028382,26.2889658 L14.2691999,17.4543184 L11.7308001,20.5456816 L23.7308001,30.3991973 C24.4556764,30.9944122 25.4968093,31.0059345 26.2346809,30.4269078 L38.7913215,20.5733922 L36.3219597,17.4266078 L25.028382,26.2889658 Z" id="Combined-Shape" fill="#000000"></path>
    </g>
</svg>
